X: 117
T: La Martinella
N: Derived from Mar3017-La_Martinella.krn
C: Johannes Martini
%%abc-version 2.0
%%abcx-abcm2ps-target-version 5.9.1 (29 Sep 2008)
%%abc-creator hum2abc beta
%%abcx-conversion-date 2019/02/17 07:19:43
%%abc-edited-by Jesse Rodin
%%abc-edited-by Chris Gage 11-06-2014
%%abcx-initial-encoding-date 2015/02/24/
%%humdrum-veritas 109193128
%%humdrum-veritas-data 3987446538
%%linebreak <none>
%%barnumbers 0
L: 1/4
M: 2/1
Q: 1/2=120
V: 1 clef=treble
V: 2 clef=treble-8
V: 3 clef=bass
K: F
[V:1] G8 | 
[V:2] z8 | 
[V:3] z8 | 
[V:1] F4G4 | 
[V:2] z8 | 
[V:3] z8 | 
[V:1] B8 | 
[V:2] G8 | 
[V:3] z8 | 
[V:1] A4G4- | 
[V:2] F4G4 | 
[V:3] z8 | 
[V:1] G2F2D4 | 
[V:2] B8 | 
[V:3] z8 | 
[V:1] F4G2B2- | 
[V:2] A4G4- | 
[V:3] z8 | 
[V:1] B2A2F4 | 
[V:2] G2F2D4 | 
[V:3] z8 | 
[V:1] A4B2d2- | 
[V:2] F4G2B2- | 
[V:3] z8 | 
[V:1] d2c2A2c2- | 
[V:2] B2A2F4 | 
[V:3] z8 | 
[V:1] cBA2G2B2 | 
[V:2] A4B2d2- | 
[V:3] z8 | 
[V:1] AGG4^F2 | 
[V:2] dcB2A4 | 
[V:3] z8 | 
[V:1] G8 | 
[V:2] G4z4 | 
[V:3] z8 | 
[V:1] z8 | 
[V:2] G4F4 | 
[V:3] G,,4D,4 | 
[V:1] z8 | 
[V:2] G4A2B2 | 
[V:3] B,,2C,4D,2 | 
[V:1] z8 | 
[V:2] c2A2d2e2- | 
[V:3] E,2F,2D,2G,2- | 
[V:1] z8 | 
[V:2] edd4^c2 | 
[V:3] G,2F,2E,4 | 
[V:1] D4F4- | 
[V:2] d4z4 | 
[V:3] D,4B,,2D,2- | 
[V:1] F2G2A4 | 
[V:2] D4F4 | 
[V:3] D,2C,B,,A,,4 | 
[V:1] B4A4 | 
[V:2] G4A4 | 
[V:3] G,,4z4 | 
[V:1] G2d4c2 | 
[V:2] B4A4 | 
[V:3] G,4F,4 | 
[V:1] B2AGF2A2 | 
[V:2] G2d4c2 | 
[V:3] G,3F,D,2F,2 | 
[V:1] G2B2A2c2- | 
[V:2] B2AGF2A2 | 
[V:3] G,4A,2F,2 | 
[V:1] cBB4A2 | 
[V:2] B2d2c4 | 
[V:3] G,2B,2F,4 | 
[V:1] B8 | 
[V:2] B4z4 | 
[V:3] B,,4_E,4 | 
[V:1] z8 | 
[V:2] B4B2A2- | 
[V:3] _E,2D,4C,2 | 
[V:1] z8 | 
[V:2] AGG4^F2 | 
[V:3] D,2B,,2A,,4 | 
[V:1] B4B2A2- | 
[V:2] G4z4 | 
[V:3] G,,2G,4F,2 | 
[V:1] AGG4^F2 | 
[V:2] z8 | 
[V:3] G,2B,2A,4 | 
[V:1] G4z4 | 
[V:2] z4d4 | 
[V:3] G,4D,2F,2- | 
[V:1] z8 | 
[V:2] c2B3AG2 | 
[V:3] F,2D,2_E,4 | 
[V:1] z8 | 
[V:2] F2B4A2 | 
[V:3] D,2B,,2C,4 | 
[V:1] d4c2B2- | 
[V:2] B4c2d2- | 
[V:3] B,,4z2G,,2 | 
[V:1] BAG2F2B2- | 
[V:2] d2_e2d2B2 | 
[V:3] B,,2C,2D,2G,2 | 
[V:1] B2A2B4 | 
[V:2] c4B4 | 
[V:3] F,4B,,3C, | 
[V:1] F4G4 | 
[V:2] z8 | 
[V:3] D,4C,2B,,2 | 
[V:1] A4B2A2- | 
[V:2] F4G2F2 | 
[V:3] A,,4G,,2D,2 | 
[V:1] AGG4^F2 | 
[V:2] B2c2A4 | 
[V:3] _E,2C,2D,4 | 
[V:1] G4D4- | 
[V:2] G6B2- | 
[V:3] G,,4z2G,,2 | 
[V:1] D2C2B,2A,G, | 
[V:2] B2A2G4 | 
[V:3] B,,2C,2_E,4 | 
[V:1] !fermata!A,8 | 
[V:2] !fermata!F8- | 
[V:3] !fermata!D,8 | 
[V:1] z8 | 
[V:2] F8 | 
[V:3] D,4A,,2D,2- | 
[V:1] A8 | 
[V:2] z8 | 
[V:3] D,2C,2A,,2D,2 | 
[V:1] B4A4 | 
[V:2] z8 | 
[V:3] G,,2G,4F,2 | 
[V:1] F2E4A2- | 
[V:2] A8 | 
[V:3] D,2C,2E,2F,2 | 
[V:1] A2G2A4 | 
[V:2] B4A4- | 
[V:3] G,4D,2F,2- | 
[V:1] z8 | 
[V:2] A2G2F4 | 
[V:3] F,2E,2D,3C, | 
[V:1] z8 | 
[V:2] E2A4G2 | 
[V:3] A,,2C,2B,,4 | 
[V:1] A4c4- | 
[V:2] A8 | 
[V:3] A,,4z2A,2- | 
[V:1] c2B2A4 | 
[V:2] z8 | 
[V:3] A,2G,2F,2D,2 | 
[V:1] G2G4F2 | 
[V:2] z8 | 
[V:3] G,2B,2A,4 | 
[V:1] G2E2D2F2- | 
[V:2] z8 | 
[V:3] G,4B,2A,2- | 
[V:1] FED4^C2 | 
[V:2] z8 | 
[V:3] A,2F,2E,4 | 
[V:1] D4z4 | 
[V:2] D4F3E | 
[V:3] D,2F,4B,,2 | 
[V:1] z8 | 
[V:2] F2G2B2A2- | 
[V:3] A,,2G,,2D,4 | 
[V:1] z8 | 
[V:2] A2G4^F2 | 
[V:3] C,2B,,2A,,4 | 
[V:1] d6c2 | 
[V:2] G4z4 | 
[V:3] G,,4G,4- | 
[V:1] B4A4 | 
[V:2] d6c2 | 
[V:3] G,4F,4 | 
[V:1] G4A2c2- | 
[V:2] B4A4 | 
[V:3] G,2B,2F,4 | 
[V:1] c2B2c4 | 
[V:2] G4A2c2- | 
[V:3] z2G,2F,2E,2 | 
[V:1] z4G4 | 
[V:2] c2=B2c4 | 
[V:3] D,4C,4 | 
[V:1] G2B4A2 | 
[V:2] z4G4 | 
[V:3] z2B,,2G,,4 | 
[V:1] G3FD4 | 
[V:2] G2B4A2 | 
[V:3] [M:2/1]z8 | 
[V:1] z2G2A2B2 | 
[V:2] G3FD4 | 
[V:3] z8 | 
[V:1] G2B2c2d2 | 
[V:2] z2G2A2B2 | 
[V:3] z8 | 
[V:1] B4A2A2- | 
[V:2] G2B2c2d2 | 
[V:3] z8 | 
[V:1] A2G2A4 | 
[V:2] B4A4 | 
[V:3] z8 | 
[V:1] [M:3/1]z12 | 
[V:2] [M:3/1]d8c4 | 
[V:3] [M:3/1]D,4F,6E,2 | 
[V:1] z12 | 
[V:2] B6G2A4 | 
[V:3] D,4C,8 | 
[V:1] d8c4 | 
[V:2] B8z4 | 
[V:3] B,,8F,4 | 
[V:1] B6G2A4 | 
[V:2] z12 | 
[V:3] G,4B,4C4 | 
[V:1] B8z4 | 
[V:2] G8F4 | 
[V:3] B,6G,2A,4 | 
[V:1] z12 | 
[V:2] G4B4A4 | 
[V:3] G,4D,6C,2 | 
[V:1] z12 | 
[V:2] G6E2^F4 | 
[V:3] B,,4A,,8 | 
[V:1] G8F4 | 
[V:2] G4B4A4 | 
[V:3] G,,8D,4 | 
[V:1] G4B4A4 | 
[V:2] G4d6c2 | 
[V:3] E,4D,4F,4 | 
[V:1] G4d6c2 | 
[V:2] B2A2B4G4 | 
[V:3] G,8B,4- | 
[V:1] B2A2B4A4 | 
[V:2] d6B2c4 | 
[V:3] B,4G,4F,4 | 
[V:1] G8^F4 | 
[V:2] B4A8 | 
[V:3] G,4D,8 | 
[V:1] [M:2/1]G6F2 | 
[V:2] [M:2/1]G8 | 
[V:3] [M:2/1]G,,4G,4- | 
[V:1] D4F2E2- | 
[V:2] z8 | 
[V:3] G,2F,2D,2C,2 | 
[V:1] EDD4^C2 | 
[V:2] z8 | 
[V:3] F,2G,2E,4 | 
[V:1] D4z2D2- | 
[V:2] z4D4 | 
[V:3] D,4F,4 | 
[V:1] D2E2F2D2 | 
[V:2] G4A2B2 | 
[V:3] G,2E,2D,4 | 
[V:1] G4E2A2 | 
[V:2] G2c4A2 | 
[V:3] E,2C,4F,2- | 
[V:1] F2B4G2 | 
[V:2] d2B2_e4 | 
[V:3] F,2G,2_E,4 | 
[V:1] A2B2c2F2 | 
[V:2] c2d2e2f2 | 
[V:3] F,2B,,2z2B,2- | 
[V:1] G2A2B2A2- | 
[V:2] B2c2d2c2- | 
[V:3] B,2A,2G,2A,2 | 
[V:1] AGG4^F2 | 
[V:2] c2B2A4 | 
[V:3] F,2G,2D,4 | 
[V:1] G8 |]  
[V:2] G8 |]  
[V:3] G,,8 |]  



